X:1
T:Eggs and Marrowbones
M:4/4
L:1/4
K:A
 c/2c/2 B A/2A/2 E|c/2-^B/2-c/2 A/2- A3/2 B/2| c- A B G| A2- E F| =G G FE/2-D/2|\
 C- D E E/2E/2| F/2E/2 C A,C/2-E/2| F3 z|
